Origami/64x64/apps/navalbattle.svg

<svg width="64" height="64" version="1" xmlns="http://www.w3.org/2000/svg" xmlns:xlink="http://www.w3.org/1999/xlink">
 <defs>
  <linearGradient id="linearGradient4414">
   <stop offset="0"/>
   <stop stop-opacity="0" offset="1"/>
  </linearGradient>
  <linearGradient id="linearGradient4420" x1="23.968" x2="23.968" y1="32.02" y2="34.144" gradientTransform="matrix(1.4,0,0,1,-1.6,6)" gradientUnits="userSpaceOnUse" xlink:href="#linearGradient4414"/>
  <linearGradient id="linearGradient4387" x1="16.034" x2="16.062" y1="16.945" y2="12.055" gradientTransform="scale(2)" gradientUnits="userSpaceOnUse" xlink:href="#linearGradient4414"/>
 </defs>
 <path d="m4 56v2c0 1.662 1.338 3 3 3h50c1.662 0 3-1.338 3-3v-2c0 1.662-1.338 3-3 3h-50c-1.662 0-3-1.338-3-3z" style="opacity:.2"/>
 <rect transform="matrix(0,-1,-1,0,0,0)" x="-60" y="-60" width="56" height="56" rx="3" ry="3" style="fill:#4e91d9"/>
 <path d="m7 4c-1.662 0-3 1.338-3 3v1c0-1.662 1.338-3 3-3h50c1.662 0 3 1.338 3 3v-1c0-1.662-1.338-3-3-3h-50z" style="fill:#ffffff;opacity:.1"/>
 <path d="m32 24 10 10-10.0728 1.91754-9.928-1.918z" style="fill:#ffffff"/>
 <path d="m12 25 20 10 20-10-6 16h-28z" style="opacity:.2"/>
 <path d="m32 24 10 10-10.0728 1.91754-9.928-1.918z" style="fill:url(#linearGradient4387);opacity:.15"/>
 <path d="m12 24 20 10 20-10-6 16h-28z" style="fill:#ffffff"/>
 <path d="m32 38 14 2h-28z" style="fill:url(#linearGradient4420);opacity:.15"/>
</svg>

<svg xmlns="http://www.w3.org/2000/svg" xmlns:xlink="http://www.w3.org/1999/xlink" width="64" height="64" version="1">
 <defs>
  <linearGradient id="linearGradient4414">
   <stop offset="0"/>
   <stop offset="1" stop-opacity="0"/>
  </linearGradient>
  <linearGradient id="linearGradient4420" x1="23.968" x2="23.968" y1="32.02" y2="34.144" gradientTransform="matrix(1.4,0,0,1,-1.6,6)" gradientUnits="userSpaceOnUse" xlink:href="#linearGradient4414"/>
  <linearGradient id="linearGradient4387" x1="16.034" x2="16.062" y1="16.945" y2="12.055" gradientTransform="scale(2,2)" gradientUnits="userSpaceOnUse" xlink:href="#linearGradient4414"/>
 </defs>
 <path style="opacity:0.2" d="m 4,56 0,2 c 0,1.662 1.338,3 3,3 l 50,0 c 1.662,0 3,-1.338 3,-3 l 0,-2 c 0,1.662 -1.338,3 -3,3 L 7,59 C 5.338,59 4,57.662 4,56 Z"/>
 <rect style="fill:#4e91d9" width="56" height="56" x="-60" y="-60" rx="3" ry="3" transform="matrix(0,-1,-1,0,0,0)"/>
 <path style="opacity:0.1;fill:#ffffff" d="M 7,4 C 5.338,4 4,5.338 4,7 L 4,8 C 4,6.338 5.338,5 7,5 l 50,0 c 1.662,0 3,1.338 3,3 L 60,7 C 60,5.338 58.662,4 57,4 L 7,4 Z"/>
 <path style="fill:#ffffff" d="m 32,24 10,10 -10.0728,1.91754 -9.928,-1.918 z"/>
 <path style="opacity:0.2" d="M 12,25 32,35 52,25 46,41 18,41 Z"/>
 <path style="opacity:0.15;fill:url(#linearGradient4387)" d="m 32,24 10,10 -10.0728,1.91754 -9.928,-1.918 z"/>
 <path style="fill:#ffffff" d="M 12,24 32,34 52,24 46,40 18,40 Z"/>
 <path style="opacity:0.15;fill:url(#linearGradient4420)" d="m 32,38 14,2 -28,0 z"/>
</svg>
